X: 1
T: Eddie Kelly's
M: 4/4
L: 1/8
R: reel
K: Dmaj
DC |: A,DDC DEFG | ABcd edcA | ceef e/f/edc | AecA GECE | A,DDC DEFG | ABcd edcA | ceef e/f/edc |1 ABGE FDD/C/D :|2 ABGE FDDc |: d/e/dAd BdAc | d/e/dAd BAGF | Eeef e/f/e/^d/e=d | cAec AecA | d/e/dAG FEDC | D/E/DA,D B,DA,D | CDEF GBed |1 cAGE FDDc :|2 cAGE FDDC ||
